X:401
T:The Steamboat
T:Tune
M:2/2
L:1/8
K:G
P:A
"G"g2gB d2d2|B2dB G2GA|B2BB B2B2|"C"ddBc "D"A4|
"G"g2gB d2d2|B2dB G2GA|"Em7"B2Bc "D"d2g2|"C"ec"D7"AF "G"G4:|
P:B
|:"G"G2Bc ddBG|"D"FGAB cBA2|"G"GABc defg|"C"agfe "D7"dcBA|
"G"G2Bc ddBG|"D"FGAB cBA2|"Em7"GABc "D"defg|"C"ec"D7"AF "G"G4:|
T:Harmony
P:A
"G"B2BA GFGA|BcBA G4|zccB A2GG|"C"FGFE "D"D4|
"G"B2BA GFGA|BcBA G4|"Em7"zccB "D"A2GG|"C"FD"D7"EF "G"G4:|
P:B
|:"G"G2GA BBBG|"D"FGFE DDFD|"G"zDGA BBBB|"C"cBAG "D7"(A2.d2)|
"G"G2GA BBBG|"D"FGFE DDFD|"Em7"zDGA "D"B2BB|"C"cB"D7"AF "G"G4:|
T:Harmony
L:1/4
K:G
P:A
G3A|B3c|d4|cB AB/2A/2|G3A|B3c|dc BA/2B/2|cB AB/2A/2:|
P:B
|:G3 F/2E/2|D3C|B,>C D2|CD/2E/2 DE/2F/2|G3 F2/E/2|D3C|B,>C D>D|C/2B,/2A,/2B,/2 G,2:|



%%newpage
%%textfont * 20
%%text P10 (1.0)
%%textfont * 12



